storage/app/icons/phosphoricons/light/towel-light.svg

<svg xmlns="http://www.w3.org/2000/svg" fill="currentColor" viewBox="0 0 256 256"><path d="M200 26H72a22 22 0 0 0-22 22v168a14 14 0 0 0 14 14h112a14 14 0 0 0 14-14V48a10 10 0 0 1 20 0v104a6 6 0 0 0 12 0V48a22 22 0 0 0-22-22M72 38h108.41A21.84 21.84 0 0 0 178 48v138H62V48a10 10 0 0 1 10-10m104 180H64a2 2 0 0 1-2-2v-18h116v18a2 2 0 0 1-2 2"/></svg>

<svg xmlns="http://www.w3.org/2000/svg" viewBox="0 0 256 256" fill="currentColor"><path d="M200,26H72A22,22,0,0,0,50,48V216a14,14,0,0,0,14,14H176a14,14,0,0,0,14-14V48a10,10,0,0,1,20,0V152a6,6,0,0,0,12,0V48A22,22,0,0,0,200,26ZM72,38H180.41A21.84,21.84,0,0,0,178,48V186H62V48A10,10,0,0,1,72,38ZM176,218H64a2,2,0,0,1-2-2V198H178v18A2,2,0,0,1,176,218Z"/></svg>
